P3
64 64
255
7 17 31
7 17 31
7 17 31
7 17 31
7 17 31
7 17 31
7 17 31
7 17 31
7 17 31
7 17 31
7 17 31
7 17 31
7 17 31
7 17 31
7 17 31
7 17 31
7 17 31
7 17 31
7 17 31
7 17 31
7 17 31
7 17 31
7 17 31
7 17 31
7 17 31
7 17 31
7 17 31
7 17 31
7 17 31
7 17 31
7 17 31
7 17 31
7 17 31
7 17 31
7 17 31
7 17 31
7 17 31
7 17 31
7 17 31
7 17 31
7 17 31
7 17 31
7 17 31
7 17 31
7 17 31
7 17 31
7 17 31
7 17 31
7 17 31
7 17 31
7 17 31
7 17 31
7 17 31
7 17 31
7 17 31
7 17 31
7 17 31
7 17 31
7 17 31
7 17 31
7 17 31
7 17 31
7 17 31
7 17 31
7 17 31
7 17 31
7 17 31
7 17 31
7 17 31
7 17 31
7 17 31
7 17 31
7 17 31
7 17 31
7 17 31
7 17 31
7 17 31
7 17 31
7 17 31
7 17 31
7 17 31
7 17 31
7 17 31
7 17 31
7 17 31
7 17 31
7 17 31
7 17 31
7 17 31
7 17 31
7 17 31
7 17 31
7 17 31
7 17 31
7 17 31
7 17 31
7 17 31
7 17 31
7 17 31
7 17 31
7 17 31
7 17 31
7 17 31
7 17 31
7 17 31
7 17 31
7 17 31
7 17 31
7 17 31
7 17 31
7 17 31
7 17 31
7 17 31
7 17 31
7 17 31
7 17 31
7 17 31
7 17 31
7 17 31
7 17 31
7 17 31
7 17 31
7 17 31
7 17 31
7 17 31
7 17 31
7 17 31
7 17 31
7 17 31
7 17 31
7 17 31
7 17 31
7 17 31
7 17 31
7 17 31
7 17 31
7 17 31
7 17 31
7 17 31
7 17 31
7 17 31
7 17 31
7 17 31
7 17 31
7 17 31
7 17 31
7 17 31
7 17 31
7 17 31
7 17 31
7 17 31
7 17 31
7 17 31
7 17 31
7 17 31
7 17 31
7 17 31
7 17 31
7 17 31
7 17 31
7 17 31
7 17 31
7 17 31
7 17 31
7 17 31
7 17 31
7 17 31
7 17 31
7 17 31
7 17 31
7 17 31
7 17 31
7 17 31
7 17 31
7 17 31
7 17 31
7 17 31
7 17 31
7 17 31
7 17 31
7 17 31
7 17 31
7 17 31
7 17 31
7 17 31
7 17 31
7 17 31
7 17 31
7 17 31
7 17 31
7 17 31
7 17 31
7 17 31
7 17 31
7 17 31
7 17 31
7 17 31
7 17 31
7 17 31
7 17 31
7 17 31
7 17 31
7 17 31
7 17 31
7 17 31
7 17 31
7 17 31
7 17 31
7 17 31
7 17 31
7 17 31
7 17 31
7 17 31
7 17 31
7 17 31
7 17 31
7 17 31
7 17 31
7 17 31
7 17 31
7 17 31
7 17 31
7 17 31
7 17 31
7 17 31
7 17 31
7 17 31
7 17 31
7 17 31
7 17 31
7 17 31
7 17 31
7 17 31
7 17 31
7 17 31
7 17 31
7 17 31
7 17 31
7 17 31
7 17 31
7 17 31
7 17 31
7 17 31
7 17 31
7 17 31
7 17 31
7 17 31
7 17 31
7 17 31
7 17 31
7 17 31
7 17 31
7 17 31
7 17 31
7 17 31
7 17 31
7 17 31
7 17 31
7 17 31
7 17 31
7 17 31
7 17 31
7 17 31
7 17 31
7 17 31
7 17 31
7 17 31
7 17 31
7 17 31
7 17 31
7 17 31
7 17 31
7 17 31
7 17 31
7 17 31
7 17 31
7 17 31
7 17 31
7 17 31
7 17 31
7 17 31
7 17 31
7 17 31
7 17 31
7 17 31
7 17 31
7 17 31
7 17 31
7 17 31
7 17 31
7 17 31
7 17 31
7 17 31
7 17 31
7 17 31
7 17 31
7 17 31
7 17 31
7 17 31
7 17 31
7 17 31
7 17 31
7 17 31
7 17 31
7 17 31
7 17 31
7 17 31
7 17 31
7 17 31
7 17 31
7 17 31
7 17 31
7 17 31
7 17 31
7 17 31
7 17 31
7 17 31
7 17 31
7 17 31
7 17 31
7 17 31
7 17 31
7 17 31
7 17 31
7 17 31
7 17 31
7 17 31
7 17 31
7 17 31
7 17 31
7 17 31
7 17 31
7 17 31
7 17 31
7 17 31
7 17 31
7 17 31
45 125 225
45 125 225
45 125 225
45 125 225
45 125 225
45 125 225
45 125 225
45 125 225
45 125 225
45 125 225
45 125 225
45 125 225
45 125 225
45 125 225
45 125 225
45 125 225
45 125 225
45 125 225
45 125 225
45 125 225
45 125 225
45 125 225
45 125 225
45 125 225
45 125 225
45 125 225
45 125 225
45 125 225
45 125 225
45 125 225
7 17 31
7 17 31
7 17 31
7 17 31
7 17 31
7 17 31
7 17 31
7 17 31
7 17 31
7 17 31
7 17 31
7 17 31
7 17 31
7 17 31
7 17 31
7 17 31
7 17 31
7 17 31
7 17 31
7 17 31
7 17 31
7 17 31
7 17 31
7 17 31
7 17 31
7 17 31
7 17 31
7 17 31
7 17 31
7 17 31
45 125 225
45 125 225
45 125 225
45 125 225
45 125 225
45 125 225
45 125 225
45 125 225
45 125 225
45 125 225
45 125 225
45 125 225
45 125 225
45 125 225
45 125 225
45 125 225
45 125 225
45 125 225
45 125 225
45 125 225
45 125 225
45 125 225
45 125 225
45 125 225
45 125 225
45 125 225
45 125 225
45 125 225
45 125 225
45 125 225
45 125 225
45 125 225
45 125 225
45 125 225
45 125 225
45 125 225
45 125 225
45 125 225
7 17 31
7 17 31
7 17 31
7 17 31
7 17 31
7 17 31
7 17 31
7 17 31
7 17 31
7 17 31
7 17 31
7 17 31
7 17 31
7 17 31
7 17 31
7 17 31
7 17 31
7 17 31
7 17 31
7 17 31
7 17 31
7 17 31
7 17 31
7 17 31
45 125 225
45 125 225
45 125 225
45 125 225
45 125 225
45 125 225
45 125 225
45 125 225
45 125 225
45 125 225
45 125 225
45 125 225
45 125 225
45 125 225
45 125 225
45 125 225
45 125 225
45 125 225
45 125 225
45 125 225
45 125 225
45 125 225
45 125 225
45 125 225
45 125 225
45 125 225
45 125 225
45 125 225
45 125 225
45 125 225
45 125 225
45 125 225
45 125 225
45 125 225
45 125 225
45 125 225
45 125 225
45 125 225
45 125 225
45 125 225
45 125 225
45 125 225
7 17 31
7 17 31
7 17 31
7 17 31
7 17 31
7 17 31
7 17 31
7 17 31
7 17 31
7 17 31
7 17 31
7 17 31
7 17 31
7 17 31
7 17 31
7 17 31
7 17 31
7 17 31
7 17 31
7 17 31
7 17 31
45 125 225
45 125 225
45 125 225
45 125 225
45 125 225
45 125 225
45 125 225
45 125 225
45 125 225
45 125 225
45 125 225
45 125 225
45 125 225
45 125 225
45 125 225
45 125 225
45 125 225
45 125 225
45 125 225
45 125 225
45 125 225
45 125 225
45 125 225
45 125 225
45 125 225
45 125 225
45 125 225
45 125 225
45 125 225
45 125 225
45 125 225
45 125 225
45 125 225
45 125 225
45 125 225
45 125 225
45 125 225
45 125 225
45 125 225
45 125 225
45 125 225
45 125 225
45 125 225
45 125 225
7 17 31
7 17 31
7 17 31
7 17 31
7 17 31
7 17 31
7 17 31
7 17 31
7 17 31
7 17 31
7 17 31
7 17 31
7 17 31
7 17 31
7 17 31
7 17 31
7 17 31
7 17 31
7 17 31
45 125 225
45 125 225
45 125 225
45 125 225
45 125 225
45 125 225
45 125 225
45 125 225
45 125 225
45 125 225
45 125 225
45 125 225
45 125 225
45 125 225
45 125 225
45 125 225
45 125 225
45 125 225
45 125 225
45 125 225
45 125 225
45 125 225
45 125 225
45 125 225
45 125 225
45 125 225
45 125 225
45 125 225
45 125 225
45 125 225
45 125 225
45 125 225
45 125 225
45 125 225
45 125 225
45 125 225
45 125 225
45 125 225
45 125 225
45 125 225
45 125 225
45 125 225
45 125 225
45 125 225
45 125 225
45 125 225
7 17 31
7 17 31
7 17 31
7 17 31
7 17 31
7 17 31
7 17 31
7 17 31
7 17 31
7 17 31
7 17 31
7 17 31
7 17 31
7 17 31
7 17 31
7 17 31
7 17 31
45 125 225
45 125 225
45 125 225
45 125 225
45 125 225
45 125 225
45 125 225
45 125 225
45 125 225
45 125 225
45 125 225
45 125 225
45 125 225
45 125 225
45 125 225
45 125 225
45 125 225
45 125 225
45 125 225
45 125 225
45 125 225
45 125 225
45 125 225
45 125 225
45 125 225
45 125 225
45 125 225
45 125 225
45 125 225
45 125 225
45 125 225
45 125 225
45 125 225
45 125 225
45 125 225
45 125 225
45 125 225
45 125 225
45 125 225
45 125 225
45 125 225
45 125 225
45 125 225
45 125 225
45 125 225
45 125 225
45 125 225
45 125 225
7 17 31
7 17 31
7 17 31
7 17 31
7 17 31
7 17 31
7 17 31
7 17 31
7 17 31
7 17 31
7 17 31
7 17 31
7 17 31
7 17 31
7 17 31
45 125 225
45 125 225
45 125 225
45 125 225
45 125 225
45 125 225
45 125 225
45 125 225
45 125 225
45 125 225
45 125 225
45 125 225
45 125 225
45 125 225
45 125 225
45 125 225
45 125 225
45 125 225
45 125 225
45 125 225
45 125 225
45 125 225
45 125 225
45 125 225
45 125 225
45 125 225
45 125 225
45 125 225
45 125 225
45 125 225
45 125 225
45 125 225
45 125 225
45 125 225
45 125 225
45 125 225
45 125 225
45 125 225
45 125 225
45 125 225
45 125 225
45 125 225
45 125 225
45 125 225
45 125 225
45 125 225
45 125 225
45 125 225
45 125 225
45 125 225
7 17 31
7 17 31
7 17 31
7 17 31
7 17 31
7 17 31
7 17 31
7 17 31
7 17 31
7 17 31
7 17 31
7 17 31
7 17 31
7 17 31
45 125 225
45 125 225
45 125 225
45 125 225
45 125 225
45 125 225
45 125 225
45 125 225
45 125 225
45 125 225
45 125 225
45 125 225
45 125 225
45 125 225
45 125 225
45 125 225
45 125 225
45 125 225
45 125 225
45 125 225
45 125 225
45 125 225
45 125 225
45 125 225
45 125 225
45 125 225
45 125 225
45 125 225
45 125 225
45 125 225
45 125 225
45 125 225
45 125 225
45 125 225
45 125 225
45 125 225
45 125 225
45 125 225
45 125 225
45 125 225
45 125 225
45 125 225
45 125 225
45 125 225
45 125 225
45 125 225
45 125 225
45 125 225
45 125 225
45 125 225
7 17 31
7 17 31
7 17 31
7 17 31
7 17 31
7 17 31
7 17 31
7 17 31
7 17 31
7 17 31
7 17 31
7 17 31
7 17 31
45 125 225
45 125 225
45 125 225
45 125 225
45 125 225
45 125 225
45 125 225
45 125 225
45 125 225
45 125 225
45 125 225
45 125 225
45 125 225
45 125 225
45 125 225
45 125 225
45 125 225
45 125 225
45 125 225
45 125 225
45 125 225
45 125 225
45 125 225
45 125 225
45 125 225
45 125 225
45 125 225
245 250 255
245 250 255
45 125 225
45 125 225
45 125 225
45 125 225
45 125 225
45 125 225
45 125 225
45 125 225
45 125 225
45 125 225
45 125 225
45 125 225
45 125 225
45 125 225
45 125 225
45 125 225
45 125 225
45 125 225
45 125 225
45 125 225
45 125 225
45 125 225
45 125 225
7 17 31
7 17 31
7 17 31
7 17 31
7 17 31
7 17 31
7 17 31
7 17 31
7 17 31
7 17 31
7 17 31
7 17 31
45 125 225
45 125 225
45 125 225
45 125 225
45 125 225
45 125 225
45 125 225
45 125 225
45 125 225
45 125 225
45 125 225
245 250 255
245 250 255
245 250 255
45 125 225
45 125 225
45 125 225
45 125 225
45 125 225
245 250 255
245 250 255
245 250 255
245 250 255
245 250 255
245 250 255
245 250 255
245 250 255
245 250 255
245 250 255
245 250 255
245 250 255
45 125 225
45 125 225
45 125 225
45 125 225
45 125 225
45 125 225
45 125 225
45 125 225
45 125 225
45 125 225
45 125 225
45 125 225
45 125 225
45 125 225
45 125 225
45 125 225
45 125 225
45 125 225
45 125 225
45 125 225
45 125 225
7 17 31
7 17 31
7 17 31
7 17 31
7 17 31
7 17 31
7 17 31
7 17 31
7 17 31
7 17 31
7 17 31
7 17 31
45 125 225
45 125 225
45 125 225
45 125 225
45 125 225
45 125 225
45 125 225
45 125 225
45 125 225
45 125 225
245 250 255
245 250 255
245 250 255
245 250 255
245 250 255
245 250 255
245 250 255
245 250 255
245 250 255
245 250 255
245 250 255
245 250 255
245 250 255
245 250 255
245 250 255
245 250 255
245 250 255
245 250 255
245 250 255
245 250 255
245 250 255
245 250 255
45 125 225
45 125 225
45 125 225
45 125 225
45 125 225
45 125 225
45 125 225
45 125 225
45 125 225
45 125 225
45 125 225
45 125 225
45 125 225
45 125 225
45 125 225
45 125 225
45 125 225
45 125 225
45 125 225
45 125 225
7 17 31
7 17 31
7 17 31
7 17 31
7 17 31
7 17 31
7 17 31
7 17 31
7 17 31
7 17 31
7 17 31
7 17 31
45 125 225
45 125 225
45 125 225
45 125 225
45 125 225
45 125 225
45 125 225
45 125 225
45 125 225
45 125 225
245 250 255
245 250 255
245 250 255
245 250 255
245 250 255
245 250 255
245 250 255
245 250 255
245 250 255
245 250 255
245 250 255
245 250 255
245 250 255
245 250 255
245 250 255
245 250 255
245 250 255
245 250 255
245 250 255
245 250 255
245 250 255
245 250 255
245 250 255
45 125 225
45 125 225
45 125 225
45 125 225
45 125 225
45 125 225
45 125 225
45 125 225
45 125 225
45 125 225
45 125 225
45 125 225
45 125 225
45 125 225
45 125 225
45 125 225
45 125 225
45 125 225
45 125 225
7 17 31
7 17 31
7 17 31
7 17 31
7 17 31
7 17 31
7 17 31
7 17 31
7 17 31
7 17 31
7 17 31
45 125 225
45 125 225
45 125 225
45 125 225
45 125 225
45 125 225
45 125 225
45 125 225
45 125 225
45 125 225
45 125 225
245 250 255
245 250 255
245 250 255
245 250 255
245 250 255
245 250 255
245 250 255
245 250 255
245 250 255
245 250 255
245 250 255
245 250 255
245 250 255
245 250 255
245 250 255
245 250 255
245 250 255
245 250 255
245 250 255
245 250 255
245 250 255
245 250 255
245 250 255
245 250 255
245 250 255
45 125 225
45 125 225
45 125 225
45 125 225
45 125 225
45 125 225
45 125 225
45 125 225
45 125 225
45 125 225
45 125 225
45 125 225
45 125 225
45 125 225
45 125 225
45 125 225
45 125 225
45 125 225
7 17 31
7 17 31
7 17 31
7 17 31
7 17 31
7 17 31
7 17 31
7 17 31
7 17 31
7 17 31
45 125 225
45 125 225
45 125 225
45 125 225
45 125 225
45 125 225
45 125 225
45 125 225
45 125 225
45 125 225
45 125 225
245 250 255
245 250 255
245 250 255
245 250 255
245 250 255
245 250 255
245 250 255
245 250 255
245 250 255
245 250 255
245 250 255
245 250 255
245 250 255
45 125 225
45 125 225
45 125 225
45 125 225
45 125 225
45 125 225
245 250 255
245 250 255
245 250 255
245 250 255
245 250 255
245 250 255
245 250 255
45 125 225
45 125 225
45 125 225
45 125 225
45 125 225
45 125 225
45 125 225
45 125 225
45 125 225
45 125 225
45 125 225
45 125 225
45 125 225
45 125 225
45 125 225
45 125 225
45 125 225
7 17 31
7 17 31
7 17 31
7 17 31
7 17 31
7 17 31
7 17 31
7 17 31
7 17 31
7 17 31
45 125 225
45 125 225
45 125 225
45 125 225
45 125 225
45 125 225
45 125 225
45 125 225
45 125 225
45 125 225
45 125 225
245 250 255
245 250 255
245 250 255
245 250 255
245 250 255
45 125 225
45 125 225
45 125 225
45 125 225
45 125 225
45 125 225
45 125 225
45 125 225
45 125 225
45 125 225
45 125 225
45 125 225
45 125 225
45 125 225
45 125 225
245 250 255
245 250 255
245 250 255
245 250 255
245 250 255
245 250 255
245 250 255
245 250 255
45 125 225
45 125 225
45 125 225
45 125 225
45 125 225
45 125 225
45 125 225
45 125 225
45 125 225
45 125 225
45 125 225
45 125 225
45 125 225
45 125 225
45 125 225
7 17 31
7 17 31
7 17 31
7 17 31
7 17 31
7 17 31
7 17 31
7 17 31
7 17 31
7 17 31
45 125 225
45 125 225
45 125 225
45 125 225
45 125 225
45 125 225
45 125 225
45 125 225
45 125 225
45 125 225
45 125 225
245 250 255
245 250 255
245 250 255
245 250 255
245 250 255
45 125 225
45 125 225
45 125 225
45 125 225
45 125 225
45 125 225
45 125 225
45 125 225
45 125 225
45 125 225
45 125 225
45 125 225
45 125 225
45 125 225
45 125 225
45 125 225
245 250 255
245 250 255
245 250 255
245 250 255
245 250 255
245 250 255
245 250 255
45 125 225
45 125 225
45 125 225
45 125 225
45 125 225
45 125 225
45 125 225
45 125 225
45 125 225
45 125 225
45 125 225
45 125 225
45 125 225
45 125 225
45 125 225
7 17 31
7 17 31
7 17 31
7 17 31
7 17 31
7 17 31
7 17 31
7 17 31
7 17 31
7 17 31
45 125 225
45 125 225
45 125 225
45 125 225
45 125 225
45 125 225
45 125 225
45 125 225
45 125 225
45 125 225
45 125 225
245 250 255
245 250 255
245 250 255
245 250 255
245 250 255
45 125 225
45 125 225
45 125 225
45 125 225
45 125 225
45 125 225
45 125 225
45 125 225
45 125 225
45 125 225
45 125 225
45 125 225
45 125 225
45 125 225
45 125 225
45 125 225
45 125 225
45 125 225
245 250 255
245 250 255
245 250 255
245 250 255
245 250 255
245 250 255
45 125 225
45 125 225
45 125 225
45 125 225
45 125 225
45 125 225
45 125 225
45 125 225
45 125 225
45 125 225
45 125 225
45 125 225
45 125 225
45 125 225
7 17 31
7 17 31
7 17 31
7 17 31
7 17 31
7 17 31
7 17 31
7 17 31
7 17 31
7 17 31
45 125 225
45 125 225
45 125 225
45 125 225
45 125 225
45 125 225
45 125 225
45 125 225
45 125 225
45 125 225
45 125 225
245 250 255
245 250 255
245 250 255
245 250 255
245 250 255
45 125 225
45 125 225
45 125 225
45 125 225
45 125 225
45 125 225
45 125 225
45 125 225
45 125 225
45 125 225
45 125 225
45 125 225
45 125 225
45 125 225
45 125 225
45 125 225
45 125 225
245 250 255
245 250 255
245 250 255
245 250 255
245 250 255
245 250 255
45 125 225
45 125 225
45 125 225
45 125 225
45 125 225
45 125 225
45 125 225
45 125 225
45 125 225
45 125 225
45 125 225
45 125 225
45 125 225
45 125 225
45 125 225
7 17 31
7 17 31
7 17 31
7 17 31
7 17 31
7 17 31
7 17 31
7 17 31
7 17 31
7 17 31
45 125 225
45 125 225
45 125 225
45 125 225
45 125 225
45 125 225
45 125 225
45 125 225
45 125 225
45 125 225
45 125 225
245 250 255
245 250 255
245 250 255
245 250 255
245 250 255
45 125 225
45 125 225
45 125 225
45 125 225
45 125 225
45 125 225
45 125 225
45 125 225
45 125 225
45 125 225
45 125 225
45 125 225
45 125 225
45 125 225
45 125 225
45 125 225
245 250 255
245 250 255
245 250 255
245 250 255
245 250 255
245 250 255
245 250 255
45 125 225
45 125 225
45 125 225
45 125 225
45 125 225
45 125 225
45 125 225
45 125 225
45 125 225
45 125 225
45 125 225
45 125 225
45 125 225
45 125 225
45 125 225
7 17 31
7 17 31
7 17 31
7 17 31
7 17 31
7 17 31
7 17 31
7 17 31
7 17 31
7 17 31
45 125 225
45 125 225
45 125 225
45 125 225
45 125 225
45 125 225
45 125 225
45 125 225
45 125 225
45 125 225
45 125 225
245 250 255
245 250 255
245 250 255
245 250 255
245 250 255
45 125 225
45 125 225
45 125 225
45 125 225
45 125 225
45 125 225
45 125 225
45 125 225
45 125 225
45 125 225
45 125 225
45 125 225
45 125 225
45 125 225
45 125 225
245 250 255
245 250 255
245 250 255
245 250 255
245 250 255
245 250 255
245 250 255
45 125 225
45 125 225
45 125 225
45 125 225
45 125 225
45 125 225
45 125 225
45 125 225
45 125 225
45 125 225
45 125 225
45 125 225
45 125 225
45 125 225
45 125 225
45 125 225
7 17 31
7 17 31
7 17 31
7 17 31
7 17 31
7 17 31
7 17 31
7 17 31
7 17 31
7 17 31
45 125 225
45 125 225
45 125 225
45 125 225
45 125 225
45 125 225
45 125 225
45 125 225
45 125 225
45 125 225
45 125 225
245 250 255
245 250 255
245 250 255
245 250 255
245 250 255
45 125 225
45 125 225
45 125 225
45 125 225
45 125 225
45 125 225
45 125 225
45 125 225
45 125 225
45 125 225
45 125 225
45 125 225
45 125 225
45 125 225
245 250 255
245 250 255
245 250 255
245 250 255
245 250 255
245 250 255
245 250 255
45 125 225
45 125 225
45 125 225
45 125 225
45 125 225
45 125 225
45 125 225
45 125 225
45 125 225
45 125 225
45 125 225
45 125 225
45 125 225
45 125 225
45 125 225
45 125 225
45 125 225
7 17 31
7 17 31
7 17 31
7 17 31
7 17 31
7 17 31
7 17 31
7 17 31
7 17 31
7 17 31
45 125 225
45 125 225
45 125 225
45 125 225
45 125 225
45 125 225
45 125 225
45 125 225
45 125 225
45 125 225
45 125 225
245 250 255
245 250 255
245 250 255
245 250 255
245 250 255
45 125 225
45 125 225
45 125 225
45 125 225
45 125 225
45 125 225
45 125 225
45 125 225
45 125 225
45 125 225
45 125 225
45 125 225
10 44 92
10 44 92
10 44 92
245 250 255
245 250 255
245 250 255
245 250 255
245 250 255
45 125 225
45 125 225
45 125 225
45 125 225
45 125 225
45 125 225
45 125 225
45 125 225
45 125 225
45 125 225
45 125 225
45 125 225
45 125 225
45 125 225
45 125 225
45 125 225
45 125 225
45 125 225
7 17 31
7 17 31
7 17 31
7 17 31
7 17 31
7 17 31
7 17 31
7 17 31
7 17 31
7 17 31
45 125 225
45 125 225
45 125 225
45 125 225
45 125 225
45 125 225
45 125 225
45 125 225
45 125 225
45 125 225
45 125 225
245 250 255
245 250 255
245 250 255
245 250 255
245 250 255
245 250 255
245 250 255
245 250 255
245 250 255
245 250 255
245 250 255
245 250 255
245 250 255
245 250 255
245 250 255
245 250 255
10 44 92
10 44 92
10 44 92
10 44 92
10 44 92
245 250 255
245 250 255
245 250 255
45 125 225
45 125 225
45 125 225
45 125 225
45 125 225
45 125 225
45 125 225
45 125 225
45 125 225
45 125 225
45 125 225
45 125 225
45 125 225
45 125 225
45 125 225
45 125 225
45 125 225
45 125 225
45 125 225
7 17 31
7 17 31
7 17 31
7 17 31
7 17 31
7 17 31
7 17 31
7 17 31
7 17 31
7 17 31
45 125 225
45 125 225
45 125 225
45 125 225
45 125 225
45 125 225
45 125 225
45 125 225
45 125 225
45 125 225
45 125 225
245 250 255
245 250 255
245 250 255
245 250 255
245 250 255
245 250 255
245 250 255
245 250 255
245 250 255
245 250 255
245 250 255
245 250 255
245 250 255
245 250 255
245 250 255
10 44 92
10 44 92
10 44 92
10 44 92
10 44 92
10 44 92
10 44 92
245 250 255
245 250 255
45 125 225
45 125 225
45 125 225
45 125 225
45 125 225
45 125 225
45 125 225
45 125 225
45 125 225
45 125 225
45 125 225
45 125 225
45 125 225
45 125 225
45 125 225
45 125 225
45 125 225
45 125 225
45 125 225
7 17 31
7 17 31
7 17 31
7 17 31
7 17 31
7 17 31
7 17 31
7 17 31
7 17 31
7 17 31
45 125 225
45 125 225
45 125 225
45 125 225
45 125 225
45 125 225
45 125 225
45 125 225
45 125 225
45 125 225
45 125 225
245 250 255
245 250 255
245 250 255
245 250 255
245 250 255
245 250 255
245 250 255
245 250 255
245 250 255
245 250 255
245 250 255
245 250 255
245 250 255
245 250 255
245 250 255
10 44 92
10 44 92
10 44 92
10 44 92
10 44 92
10 44 92
10 44 92
245 250 255
245 250 255
245 250 255
45 125 225
45 125 225
45 125 225
45 125 225
45 125 225
45 125 225
45 125 225
45 125 225
45 125 225
45 125 225
45 125 225
45 125 225
45 125 225
45 125 225
45 125 225
45 125 225
45 125 225
45 125 225
7 17 31
7 17 31
7 17 31
7 17 31
7 17 31
7 17 31
7 17 31
7 17 31
7 17 31
7 17 31
45 125 225
45 125 225
45 125 225
45 125 225
45 125 225
45 125 225
45 125 225
45 125 225
45 125 225
45 125 225
45 125 225
245 250 255
245 250 255
245 250 255
245 250 255
245 250 255
245 250 255
245 250 255
245 250 255
245 250 255
245 250 255
245 250 255
245 250 255
245 250 255
245 250 255
245 250 255
10 44 92
10 44 92
10 44 92
10 44 92
10 44 92
10 44 92
10 44 92
245 250 255
245 250 255
245 250 255
245 250 255
45 125 225
45 125 225
45 125 225
45 125 225
45 125 225
45 125 225
45 125 225
45 125 225
45 125 225
45 125 225
45 125 225
45 125 225
45 125 225
45 125 225
45 125 225
45 125 225
45 125 225
7 17 31
7 17 31
7 17 31
7 17 31
7 17 31
7 17 31
7 17 31
7 17 31
7 17 31
7 17 31
45 125 225
45 125 225
45 125 225
45 125 225
45 125 225
45 125 225
45 125 225
45 125 225
45 125 225
45 125 225
45 125 225
245 250 255
245 250 255
245 250 255
245 250 255
245 250 255
245 250 255
245 250 255
245 250 255
245 250 255
245 250 255
245 250 255
245 250 255
245 250 255
245 250 255
245 250 255
245 250 255
10 44 92
10 44 92
10 44 92
10 44 92
10 44 92
245 250 255
245 250 255
245 250 255
245 250 255
245 250 255
245 250 255
45 125 225
45 125 225
45 125 225
45 125 225
45 125 225
45 125 225
45 125 225
45 125 225
45 125 225
45 125 225
45 125 225
45 125 225
45 125 225
45 125 225
45 125 225
45 125 225
7 17 31
7 17 31
7 17 31
7 17 31
7 17 31
7 17 31
7 17 31
7 17 31
7 17 31
7 17 31
45 125 225
45 125 225
45 125 225
45 125 225
45 125 225
45 125 225
45 125 225
45 125 225
45 125 225
45 125 225
45 125 225
245 250 255
245 250 255
245 250 255
245 250 255
245 250 255
45 125 225
45 125 225
45 125 225
45 125 225
45 125 225
45 125 225
45 125 225
45 125 225
45 125 225
45 125 225
45 125 225
45 125 225
10 44 92
10 44 92
10 44 92
45 125 225
45 125 225
245 250 255
245 250 255
245 250 255
245 250 255
245 250 255
245 250 255
45 125 225
45 125 225
45 125 225
45 125 225
45 125 225
45 125 225
45 125 225
45 125 225
45 125 225
45 125 225
45 125 225
45 125 225
45 125 225
45 125 225
45 125 225
7 17 31
7 17 31
7 17 31
7 17 31
7 17 31
7 17 31
7 17 31
7 17 31
7 17 31
7 17 31
45 125 225
45 125 225
45 125 225
45 125 225
45 125 225
45 125 225
45 125 225
45 125 225
45 125 225
45 125 225
45 125 225
245 250 255
245 250 255
245 250 255
245 250 255
245 250 255
45 125 225
45 125 225
45 125 225
45 125 225
45 125 225
45 125 225
45 125 225
45 125 225
45 125 225
45 125 225
45 125 225
45 125 225
45 125 225
45 125 225
45 125 225
45 125 225
45 125 225
45 125 225
245 250 255
245 250 255
245 250 255
245 250 255
245 250 255
245 250 255
45 125 225
45 125 225
45 125 225
45 125 225
45 125 225
45 125 225
45 125 225
45 125 225
45 125 225
45 125 225
45 125 225
45 125 225
45 125 225
45 125 225
7 17 31
7 17 31
7 17 31
7 17 31
7 17 31
7 17 31
7 17 31
7 17 31
7 17 31
7 17 31
45 125 225
45 125 225
45 125 225
45 125 225
45 125 225
45 125 225
45 125 225
45 125 225
45 125 225
45 125 225
45 125 225
245 250 255
245 250 255
245 250 255
245 250 255
245 250 255
45 125 225
45 125 225
45 125 225
45 125 225
45 125 225
45 125 225
45 125 225
45 125 225
45 125 225
45 125 225
45 125 225
45 125 225
45 125 225
45 125 225
45 125 225
45 125 225
45 125 225
45 125 225
45 125 225
245 250 255
245 250 255
245 250 255
245 250 255
245 250 255
245 250 255
45 125 225
45 125 225
45 125 225
45 125 225
45 125 225
45 125 225
45 125 225
45 125 225
45 125 225
45 125 225
45 125 225
45 125 225
45 125 225
7 17 31
7 17 31
7 17 31
7 17 31
7 17 31
7 17 31
7 17 31
7 17 31
7 17 31
7 17 31
45 125 225
45 125 225
45 125 225
45 125 225
45 125 225
45 125 225
45 125 225
45 125 225
45 125 225
45 125 225
45 125 225
245 250 255
245 250 255
245 250 255
245 250 255
245 250 255
45 125 225
45 125 225
45 125 225
45 125 225
45 125 225
45 125 225
45 125 225
45 125 225
45 125 225
45 125 225
45 125 225
45 125 225
45 125 225
45 125 225
45 125 225
45 125 225
45 125 225
45 125 225
45 125 225
45 125 225
245 250 255
245 250 255
245 250 255
245 250 255
245 250 255
245 250 255
245 250 255
45 125 225
45 125 225
45 125 225
45 125 225
45 125 225
45 125 225
45 125 225
45 125 225
45 125 225
45 125 225
45 125 225
7 17 31
7 17 31
7 17 31
7 17 31
7 17 31
7 17 31
7 17 31
7 17 31
7 17 31
7 17 31
45 125 225
45 125 225
45 125 225
45 125 225
45 125 225
45 125 225
45 125 225
45 125 225
45 125 225
45 125 225
45 125 225
245 250 255
245 250 255
245 250 255
245 250 255
245 250 255
45 125 225
45 125 225
45 125 225
45 125 225
45 125 225
45 125 225
45 125 225
45 125 225
45 125 225
45 125 225
45 125 225
45 125 225
45 125 225
45 125 225
45 125 225
45 125 225
45 125 225
45 125 225
45 125 225
45 125 225
45 125 225
245 250 255
245 250 255
245 250 255
245 250 255
245 250 255
245 250 255
45 125 225
45 125 225
45 125 225
45 125 225
45 125 225
45 125 225
45 125 225
45 125 225
45 125 225
45 125 225
45 125 225
7 17 31
7 17 31
7 17 31
7 17 31
7 17 31
7 17 31
7 17 31
7 17 31
7 17 31
7 17 31
45 125 225
45 125 225
45 125 225
45 125 225
45 125 225
45 125 225
45 125 225
45 125 225
45 125 225
45 125 225
45 125 225
245 250 255
245 250 255
245 250 255
245 250 255
245 250 255
45 125 225
45 125 225
45 125 225
45 125 225
45 125 225
45 125 225
45 125 225
45 125 225
45 125 225
45 125 225
45 125 225
45 125 225
45 125 225
45 125 225
45 125 225
45 125 225
45 125 225
45 125 225
45 125 225
45 125 225
45 125 225
45 125 225
245 250 255
245 250 255
245 250 255
245 250 255
245 250 255
245 250 255
45 125 225
45 125 225
45 125 225
45 125 225
45 125 225
45 125 225
45 125 225
45 125 225
45 125 225
45 125 225
7 17 31
7 17 31
7 17 31
7 17 31
7 17 31
7 17 31
7 17 31
7 17 31
7 17 31
7 17 31
45 125 225
45 125 225
45 125 225
45 125 225
45 125 225
45 125 225
45 125 225
45 125 225
45 125 225
45 125 225
45 125 225
245 250 255
245 250 255
245 250 255
245 250 255
245 250 255
45 125 225
45 125 225
45 125 225
45 125 225
45 125 225
45 125 225
45 125 225
45 125 225
45 125 225
45 125 225
45 125 225
45 125 225
45 125 225
45 125 225
45 125 225
45 125 225
45 125 225
45 125 225
45 125 225
45 125 225
45 125 225
45 125 225
245 250 255
245 250 255
245 250 255
245 250 255
245 250 255
45 125 225
45 125 225
45 125 225
45 125 225
45 125 225
45 125 225
45 125 225
45 125 225
45 125 225
45 125 225
45 125 225
7 17 31
7 17 31
7 17 31
7 17 31
7 17 31
7 17 31
7 17 31
7 17 31
7 17 31
7 17 31
45 125 225
45 125 225
45 125 225
45 125 225
45 125 225
45 125 225
45 125 225
45 125 225
45 125 225
45 125 225
45 125 225
245 250 255
245 250 255
245 250 255
245 250 255
245 250 255
45 125 225
45 125 225
45 125 225
45 125 225
45 125 225
45 125 225
45 125 225
45 125 225
45 125 225
45 125 225
45 125 225
45 125 225
45 125 225
45 125 225
45 125 225
45 125 225
45 125 225
45 125 225
45 125 225
45 125 225
45 125 225
245 250 255
245 250 255
245 250 255
245 250 255
245 250 255
245 250 255
45 125 225
45 125 225
45 125 225
45 125 225
45 125 225
45 125 225
45 125 225
45 125 225
45 125 225
45 125 225
45 125 225
7 17 31
7 17 31
7 17 31
7 17 31
7 17 31
7 17 31
7 17 31
7 17 31
7 17 31
7 17 31
45 125 225
45 125 225
45 125 225
45 125 225
45 125 225
45 125 225
45 125 225
45 125 225
45 125 225
45 125 225
45 125 225
245 250 255
245 250 255
245 250 255
245 250 255
245 250 255
45 125 225
45 125 225
45 125 225
45 125 225
45 125 225
45 125 225
45 125 225
45 125 225
45 125 225
45 125 225
45 125 225
45 125 225
45 125 225
45 125 225
45 125 225
45 125 225
45 125 225
45 125 225
45 125 225
45 125 225
245 250 255
245 250 255
245 250 255
245 250 255
245 250 255
245 250 255
45 125 225
45 125 225
45 125 225
45 125 225
45 125 225
45 125 225
45 125 225
45 125 225
45 125 225
45 125 225
45 125 225
45 125 225
7 17 31
7 17 31
7 17 31
7 17 31
7 17 31
7 17 31
7 17 31
7 17 31
7 17 31
7 17 31
45 125 225
45 125 225
45 125 225
45 125 225
45 125 225
45 125 225
45 125 225
45 125 225
45 125 225
45 125 225
45 125 225
245 250 255
245 250 255
245 250 255
245 250 255
245 250 255
45 125 225
45 125 225
45 125 225
45 125 225
45 125 225
45 125 225
45 125 225
45 125 225
45 125 225
45 125 225
45 125 225
45 125 225
45 125 225
45 125 225
45 125 225
45 125 225
45 125 225
45 125 225
45 125 225
245 250 255
245 250 255
245 250 255
245 250 255
245 250 255
245 250 255
45 125 225
45 125 225
45 125 225
45 125 225
45 125 225
45 125 225
45 125 225
45 125 225
45 125 225
45 125 225
45 125 225
45 125 225
45 125 225
7 17 31
7 17 31
7 17 31
7 17 31
7 17 31
7 17 31
7 17 31
7 17 31
7 17 31
7 17 31
45 125 225
45 125 225
45 125 225
45 125 225
45 125 225
45 125 225
45 125 225
45 125 225
45 125 225
45 125 225
45 125 225
245 250 255
245 250 255
245 250 255
245 250 255
245 250 255
45 125 225
45 125 225
45 125 225
45 125 225
45 125 225
45 125 225
45 125 225
45 125 225
45 125 225
45 125 225
45 125 225
45 125 225
45 125 225
45 125 225
45 125 225
45 125 225
45 125 225
45 125 225
245 250 255
245 250 255
245 250 255
245 250 255
245 250 255
245 250 255
45 125 225
45 125 225
45 125 225
45 125 225
45 125 225
45 125 225
45 125 225
45 125 225
45 125 225
45 125 225
45 125 225
45 125 225
45 125 225
45 125 225
7 17 31
7 17 31
7 17 31
7 17 31
7 17 31
7 17 31
7 17 31
7 17 31
7 17 31
7 17 31
45 125 225
45 125 225
45 125 225
45 125 225
45 125 225
45 125 225
45 125 225
45 125 225
45 125 225
45 125 225
45 125 225
245 250 255
245 250 255
245 250 255
245 250 255
245 250 255
45 125 225
45 125 225
45 125 225
45 125 225
45 125 225
45 125 225
45 125 225
45 125 225
45 125 225
45 125 225
45 125 225
45 125 225
45 125 225
45 125 225
45 125 225
45 125 225
45 125 225
245 250 255
245 250 255
245 250 255
245 250 255
245 250 255
245 250 255
45 125 225
45 125 225
45 125 225
45 125 225
45 125 225
45 125 225
45 125 225
45 125 225
45 125 225
45 125 225
45 125 225
45 125 225
45 125 225
45 125 225
45 125 225
7 17 31
7 17 31
7 17 31
7 17 31
7 17 31
7 17 31
7 17 31
7 17 31
7 17 31
7 17 31
45 125 225
45 125 225
45 125 225
45 125 225
45 125 225
45 125 225
45 125 225
45 125 225
45 125 225
45 125 225
45 125 225
245 250 255
245 250 255
245 250 255
245 250 255
245 250 255
45 125 225
45 125 225
45 125 225
45 125 225
45 125 225
45 125 225
45 125 225
45 125 225
45 125 225
45 125 225
45 125 225
45 125 225
45 125 225
45 125 225
45 125 225
45 125 225
245 250 255
245 250 255
245 250 255
245 250 255
245 250 255
245 250 255
45 125 225
45 125 225
45 125 225
45 125 225
45 125 225
45 125 225
45 125 225
45 125 225
45 125 225
45 125 225
45 125 225
45 125 225
45 125 225
45 125 225
45 125 225
45 125 225
7 17 31
7 17 31
7 17 31
7 17 31
7 17 31
7 17 31
7 17 31
7 17 31
7 17 31
7 17 31
45 125 225
45 125 225
45 125 225
45 125 225
45 125 225
45 125 225
45 125 225
45 125 225
45 125 225
45 125 225
45 125 225
245 250 255
245 250 255
245 250 255
245 250 255
245 250 255
245 250 255
245 250 255
245 250 255
245 250 255
245 250 255
245 250 255
245 250 255
245 250 255
245 250 255
245 250 255
245 250 255
245 250 255
245 250 255
245 250 255
245 250 255
245 250 255
245 250 255
245 250 255
245 250 255
245 250 255
245 250 255
45 125 225
45 125 225
45 125 225
45 125 225
45 125 225
45 125 225
45 125 225
45 125 225
45 125 225
45 125 225
45 125 225
45 125 225
45 125 225
45 125 225
45 125 225
45 125 225
45 125 225
7 17 31
7 17 31
7 17 31
7 17 31
7 17 31
7 17 31
7 17 31
7 17 31
7 17 31
7 17 31
45 125 225
45 125 225
45 125 225
45 125 225
45 125 225
45 125 225
45 125 225
45 125 225
45 125 225
45 125 225
45 125 225
245 250 255
245 250 255
245 250 255
245 250 255
245 250 255
245 250 255
245 250 255
245 250 255
245 250 255
245 250 255
245 250 255
245 250 255
245 250 255
245 250 255
245 250 255
245 250 255
245 250 255
245 250 255
245 250 255
245 250 255
245 250 255
245 250 255
245 250 255
245 250 255
245 250 255
45 125 225
45 125 225
45 125 225
45 125 225
45 125 225
45 125 225
45 125 225
45 125 225
45 125 225
45 125 225
45 125 225
45 125 225
45 125 225
45 125 225
45 125 225
45 125 225
45 125 225
45 125 225
7 17 31
7 17 31
7 17 31
7 17 31
7 17 31
7 17 31
7 17 31
7 17 31
7 17 31
7 17 31
7 17 31
45 125 225
45 125 225
45 125 225
45 125 225
45 125 225
45 125 225
45 125 225
45 125 225
45 125 225
45 125 225
245 250 255
245 250 255
245 250 255
245 250 255
245 250 255
245 250 255
245 250 255
245 250 255
245 250 255
245 250 255
245 250 255
245 250 255
245 250 255
245 250 255
245 250 255
245 250 255
245 250 255
245 250 255
245 250 255
245 250 255
245 250 255
245 250 255
245 250 255
245 250 255
45 125 225
45 125 225
45 125 225
45 125 225
45 125 225
45 125 225
45 125 225
45 125 225
45 125 225
45 125 225
45 125 225
45 125 225
45 125 225
45 125 225
45 125 225
45 125 225
45 125 225
45 125 225
7 17 31
7 17 31
7 17 31
7 17 31
7 17 31
7 17 31
7 17 31
7 17 31
7 17 31
7 17 31
7 17 31
7 17 31
45 125 225
45 125 225
45 125 225
45 125 225
45 125 225
45 125 225
45 125 225
45 125 225
45 125 225
45 125 225
245 250 255
245 250 255
245 250 255
245 250 255
245 250 255
245 250 255
245 250 255
245 250 255
245 250 255
245 250 255
245 250 255
245 250 255
245 250 255
245 250 255
245 250 255
245 250 255
245 250 255
245 250 255
245 250 255
245 250 255
245 250 255
245 250 255
245 250 255
245 250 255
45 125 225
45 125 225
45 125 225
45 125 225
45 125 225
45 125 225
45 125 225
45 125 225
45 125 225
45 125 225
45 125 225
45 125 225
45 125 225
45 125 225
45 125 225
45 125 225
45 125 225
45 125 225
7 17 31
7 17 31
7 17 31
7 17 31
7 17 31
7 17 31
7 17 31
7 17 31
7 17 31
7 17 31
7 17 31
7 17 31
45 125 225
45 125 225
45 125 225
45 125 225
45 125 225
45 125 225
45 125 225
45 125 225
45 125 225
45 125 225
245 250 255
245 250 255
245 250 255
245 250 255
245 250 255
245 250 255
245 250 255
245 250 255
245 250 255
245 250 255
245 250 255
245 250 255
245 250 255
245 250 255
245 250 255
245 250 255
245 250 255
245 250 255
245 250 255
245 250 255
245 250 255
245 250 255
45 125 225
45 125 225
45 125 225
45 125 225
45 125 225
45 125 225
45 125 225
45 125 225
45 125 225
45 125 225
45 125 225
45 125 225
45 125 225
45 125 225
45 125 225
45 125 225
45 125 225
45 125 225
45 125 225
45 125 225
7 17 31
7 17 31
7 17 31
7 17 31
7 17 31
7 17 31
7 17 31
7 17 31
7 17 31
7 17 31
7 17 31
7 17 31
45 125 225
45 125 225
45 125 225
45 125 225
45 125 225
45 125 225
45 125 225
45 125 225
45 125 225
45 125 225
245 250 255
245 250 255
245 250 255
245 250 255
245 250 255
45 125 225
45 125 225
45 125 225
45 125 225
45 125 225
45 125 225
45 125 225
45 125 225
45 125 225
45 125 225
45 125 225
45 125 225
45 125 225
45 125 225
45 125 225
45 125 225
45 125 225
45 125 225
45 125 225
45 125 225
45 125 225
45 125 225
45 125 225
45 125 225
45 125 225
45 125 225
45 125 225
45 125 225
45 125 225
45 125 225
45 125 225
45 125 225
45 125 225
45 125 225
45 125 225
45 125 225
45 125 225
7 17 31
7 17 31
7 17 31
7 17 31
7 17 31
7 17 31
7 17 31
7 17 31
7 17 31
7 17 31
7 17 31
7 17 31
7 17 31
45 125 225
45 125 225
45 125 225
45 125 225
45 125 225
45 125 225
45 125 225
45 125 225
45 125 225
45 125 225
245 250 255
245 250 255
245 250 255
45 125 225
45 125 225
45 125 225
45 125 225
45 125 225
45 125 225
45 125 225
45 125 225
45 125 225
45 125 225
45 125 225
45 125 225
45 125 225
45 125 225
45 125 225
45 125 225
45 125 225
45 125 225
45 125 225
45 125 225
45 125 225
45 125 225
45 125 225
45 125 225
45 125 225
45 125 225
45 125 225
45 125 225
45 125 225
45 125 225
45 125 225
45 125 225
45 125 225
45 125 225
45 125 225
45 125 225
45 125 225
7 17 31
7 17 31
7 17 31
7 17 31
7 17 31
7 17 31
7 17 31
7 17 31
7 17 31
7 17 31
7 17 31
7 17 31
7 17 31
7 17 31
45 125 225
45 125 225
45 125 225
45 125 225
45 125 225
45 125 225
45 125 225
45 125 225
45 125 225
45 125 225
45 125 225
45 125 225
45 125 225
45 125 225
45 125 225
45 125 225
45 125 225
45 125 225
45 125 225
45 125 225
45 125 225
45 125 225
45 125 225
45 125 225
45 125 225
45 125 225
45 125 225
45 125 225
45 125 225
45 125 225
45 125 225
45 125 225
45 125 225
45 125 225
45 125 225
45 125 225
45 125 225
45 125 225
45 125 225
45 125 225
45 125 225
45 125 225
45 125 225
45 125 225
45 125 225
45 125 225
45 125 225
45 125 225
45 125 225
45 125 225
7 17 31
7 17 31
7 17 31
7 17 31
7 17 31
7 17 31
7 17 31
7 17 31
7 17 31
7 17 31
7 17 31
7 17 31
7 17 31
7 17 31
7 17 31
45 125 225
45 125 225
45 125 225
45 125 225
45 125 225
45 125 225
45 125 225
45 125 225
45 125 225
45 125 225
45 125 225
45 125 225
45 125 225
45 125 225
45 125 225
45 125 225
45 125 225
45 125 225
45 125 225
45 125 225
45 125 225
45 125 225
45 125 225
45 125 225
45 125 225
45 125 225
45 125 225
45 125 225
45 125 225
45 125 225
45 125 225
45 125 225
45 125 225
45 125 225
45 125 225
45 125 225
45 125 225
45 125 225
45 125 225
45 125 225
45 125 225
45 125 225
45 125 225
45 125 225
45 125 225
45 125 225
45 125 225
45 125 225
7 17 31
7 17 31
7 17 31
7 17 31
7 17 31
7 17 31
7 17 31
7 17 31
7 17 31
7 17 31
7 17 31
7 17 31
7 17 31
7 17 31
7 17 31
7 17 31
7 17 31
45 125 225
45 125 225
45 125 225
45 125 225
45 125 225
45 125 225
45 125 225
45 125 225
45 125 225
45 125 225
45 125 225
45 125 225
45 125 225
45 125 225
45 125 225
45 125 225
45 125 225
45 125 225
45 125 225
45 125 225
45 125 225
45 125 225
45 125 225
45 125 225
45 125 225
45 125 225
45 125 225
45 125 225
45 125 225
45 125 225
45 125 225
45 125 225
45 125 225
45 125 225
45 125 225
45 125 225
45 125 225
45 125 225
45 125 225
45 125 225
45 125 225
45 125 225
45 125 225
45 125 225
45 125 225
45 125 225
7 17 31
7 17 31
7 17 31
7 17 31
7 17 31
7 17 31
7 17 31
7 17 31
7 17 31
7 17 31
7 17 31
7 17 31
7 17 31
7 17 31
7 17 31
7 17 31
7 17 31
7 17 31
7 17 31
45 125 225
45 125 225
45 125 225
45 125 225
45 125 225
45 125 225
45 125 225
45 125 225
45 125 225
45 125 225
45 125 225
45 125 225
45 125 225
45 125 225
45 125 225
45 125 225
45 125 225
45 125 225
45 125 225
45 125 225
45 125 225
45 125 225
45 125 225
45 125 225
45 125 225
45 125 225
45 125 225
45 125 225
45 125 225
45 125 225
45 125 225
45 125 225
45 125 225
45 125 225
45 125 225
45 125 225
45 125 225
45 125 225
45 125 225
45 125 225
45 125 225
45 125 225
45 125 225
45 125 225
7 17 31
7 17 31
7 17 31
7 17 31
7 17 31
7 17 31
7 17 31
7 17 31
7 17 31
7 17 31
7 17 31
7 17 31
7 17 31
7 17 31
7 17 31
7 17 31
7 17 31
7 17 31
7 17 31
7 17 31
7 17 31
45 125 225
45 125 225
45 125 225
45 125 225
45 125 225
45 125 225
45 125 225
45 125 225
45 125 225
45 125 225
45 125 225
45 125 225
45 125 225
45 125 225
45 125 225
45 125 225
45 125 225
45 125 225
45 125 225
45 125 225
45 125 225
45 125 225
45 125 225
45 125 225
45 125 225
45 125 225
45 125 225
45 125 225
45 125 225
45 125 225
45 125 225
45 125 225
45 125 225
45 125 225
45 125 225
45 125 225
45 125 225
45 125 225
45 125 225
45 125 225
45 125 225
45 125 225
7 17 31
7 17 31
7 17 31
7 17 31
7 17 31
7 17 31
7 17 31
7 17 31
7 17 31
7 17 31
7 17 31
7 17 31
7 17 31
7 17 31
7 17 31
7 17 31
7 17 31
7 17 31
7 17 31
7 17 31
7 17 31
7 17 31
7 17 31
7 17 31
45 125 225
45 125 225
45 125 225
45 125 225
45 125 225
45 125 225
45 125 225
45 125 225
45 125 225
45 125 225
45 125 225
45 125 225
45 125 225
45 125 225
45 125 225
45 125 225
45 125 225
45 125 225
45 125 225
45 125 225
45 125 225
45 125 225
45 125 225
45 125 225
45 125 225
45 125 225
45 125 225
45 125 225
45 125 225
45 125 225
45 125 225
45 125 225
45 125 225
45 125 225
45 125 225
45 125 225
45 125 225
45 125 225
7 17 31
7 17 31
7 17 31
7 17 31
7 17 31
7 17 31
7 17 31
7 17 31
7 17 31
7 17 31
7 17 31
7 17 31
7 17 31
7 17 31
7 17 31
7 17 31
7 17 31
7 17 31
7 17 31
7 17 31
7 17 31
7 17 31
7 17 31
7 17 31
7 17 31
7 17 31
7 17 31
7 17 31
7 17 31
7 17 31
45 125 225
45 125 225
45 125 225
45 125 225
45 125 225
45 125 225
45 125 225
45 125 225
45 125 225
45 125 225
45 125 225
45 125 225
45 125 225
45 125 225
45 125 225
45 125 225
45 125 225
45 125 225
45 125 225
45 125 225
45 125 225
45 125 225
45 125 225
45 125 225
45 125 225
45 125 225
45 125 225
45 125 225
45 125 225
45 125 225
7 17 31
7 17 31
7 17 31
7 17 31
7 17 31
7 17 31
7 17 31
7 17 31
7 17 31
7 17 31
7 17 31
7 17 31
7 17 31
7 17 31
7 17 31
7 17 31
7 17 31
7 17 31
7 17 31
7 17 31
7 17 31
7 17 31
7 17 31
7 17 31
7 17 31
7 17 31
7 17 31
7 17 31
7 17 31
7 17 31
7 17 31
7 17 31
7 17 31
7 17 31
7 17 31
7 17 31
7 17 31
7 17 31
7 17 31
7 17 31
7 17 31
7 17 31
7 17 31
7 17 31
7 17 31
7 17 31
7 17 31
7 17 31
7 17 31
7 17 31
7 17 31
7 17 31
7 17 31
7 17 31
7 17 31
7 17 31
7 17 31
7 17 31
7 17 31
7 17 31
7 17 31
7 17 31
7 17 31
7 17 31
7 17 31
7 17 31
7 17 31
7 17 31
7 17 31
7 17 31
7 17 31
7 17 31
7 17 31
7 17 31
7 17 31
7 17 31
7 17 31
7 17 31
7 17 31
7 17 31
7 17 31
7 17 31
7 17 31
7 17 31
7 17 31
7 17 31
7 17 31
7 17 31
7 17 31
7 17 31
7 17 31
7 17 31
7 17 31
7 17 31
7 17 31
7 17 31
7 17 31
7 17 31
7 17 31
7 17 31
7 17 31
7 17 31
7 17 31
7 17 31
7 17 31
7 17 31
7 17 31
7 17 31
7 17 31
7 17 31
7 17 31
7 17 31
7 17 31
7 17 31
7 17 31
7 17 31
7 17 31
7 17 31
7 17 31
7 17 31
7 17 31
7 17 31
7 17 31
7 17 31
7 17 31
7 17 31
7 17 31
7 17 31
7 17 31
7 17 31
7 17 31
7 17 31
7 17 31
7 17 31
7 17 31
7 17 31
7 17 31
7 17 31
7 17 31
7 17 31
7 17 31
7 17 31
7 17 31
7 17 31
7 17 31
7 17 31
7 17 31
7 17 31
7 17 31
7 17 31
7 17 31
7 17 31
7 17 31
7 17 31
7 17 31
7 17 31
7 17 31
7 17 31
7 17 31
7 17 31
7 17 31
7 17 31
7 17 31
7 17 31
7 17 31
7 17 31
7 17 31
7 17 31
7 17 31
7 17 31
7 17 31
7 17 31
7 17 31
7 17 31
7 17 31
7 17 31
7 17 31
7 17 31
7 17 31
7 17 31
7 17 31
7 17 31
7 17 31
7 17 31
7 17 31
7 17 31
7 17 31
7 17 31
7 17 31
7 17 31
7 17 31
7 17 31
7 17 31
7 17 31
7 17 31
7 17 31
7 17 31
7 17 31
7 17 31
7 17 31
7 17 31
7 17 31
7 17 31
7 17 31
7 17 31
7 17 31
7 17 31
7 17 31
7 17 31
7 17 31
7 17 31
7 17 31
7 17 31
7 17 31
7 17 31
7 17 31
7 17 31
7 17 31
7 17 31
7 17 31
7 17 31
7 17 31
7 17 31
7 17 31
7 17 31
7 17 31
7 17 31
7 17 31
7 17 31
7 17 31
7 17 31
7 17 31
7 17 31
7 17 31
7 17 31
7 17 31
7 17 31
7 17 31
7 17 31
7 17 31
7 17 31
7 17 31
7 17 31
7 17 31
7 17 31
7 17 31
7 17 31
7 17 31
7 17 31
7 17 31
7 17 31
7 17 31
7 17 31
7 17 31
7 17 31
7 17 31
7 17 31
7 17 31
7 17 31
7 17 31
7 17 31
7 17 31
7 17 31
7 17 31
7 17 31
7 17 31
7 17 31
7 17 31
7 17 31
7 17 31
7 17 31
7 17 31
7 17 31
7 17 31
7 17 31
7 17 31
7 17 31
7 17 31
7 17 31
7 17 31
7 17 31
7 17 31
7 17 31
7 17 31
7 17 31
7 17 31
7 17 31
7 17 31
7 17 31
7 17 31
7 17 31
7 17 31
7 17 31
7 17 31
7 17 31
7 17 31
7 17 31
7 17 31
7 17 31
7 17 31
7 17 31
7 17 31
7 17 31
7 17 31
7 17 31
7 17 31
7 17 31
7 17 31
7 17 31
7 17 31
7 17 31
7 17 31
7 17 31
7 17 31
7 17 31
7 17 31
7 17 31
7 17 31
7 17 31
7 17 31
7 17 31
7 17 31
7 17 31
7 17 31
7 17 31
7 17 31
7 17 31
7 17 31
7 17 31
7 17 31
7 17 31
7 17 31
7 17 31
7 17 31
7 17 31
7 17 31
7 17 31
